src/icons/0054_padlock_a.svg

<svg data-name="Layer 1" xmlns="http://www.w3.org/2000/svg" viewBox="0 0 48 48"><path d="M38.8 20H35v-9a11 11 0 00-22 0v9H9.2A2.22 2.22 0 007 22.2v23.7A2.2 2.2 0 009.2 48h29.7a2.22 2.22 0 002.2-2.2V22.2a2.38 2.38 0 00-2.3-2.2zM26 33.5V40h-4v-6.5a3.26 3.26 0 01-1-2.3 3 3 0 013-3 3.08 3.08 0 013 3 3.26 3.26 0 01-1 2.3zm6-14.9V20H16v-9a8 8 0 0116 0z"/></svg>

<svg id="Layer_1" data-name="Layer 1" xmlns="http://www.w3.org/2000/svg" viewBox="0 0 48 48"><title>0054_padlock_a</title><path d="M38.8,20H35V11a11,11,0,0,0-22,0v9H9.2A2.22,2.22,0,0,0,7,22.2V45.9A2.2,2.2,0,0,0,9.2,48H38.9a2.22,2.22,0,0,0,2.2-2.2V22.2A2.38,2.38,0,0,0,38.8,20ZM26,33.5V40H22V33.5a3.26,3.26,0,0,1-1-2.3,3,3,0,0,1,3-3,3.08,3.08,0,0,1,3,3A3.26,3.26,0,0,1,26,33.5Zm6-14.9V20H16V11a8,8,0,0,1,16,0Z"/></svg>
